X:82
L:1/16
M:2/4
K:G
 d2>c2 ||S BdcA GFGB | AFcF dFcA | BdcA G2eg | fdcA BGGA | BdcA GFGB | AFcF dFcA | BdcA GBdg | 
 fdcA BGGg :: fgaf g2ag | fgag fdde | fgaf g2ag | fdcA BGGd | fgaf g2ag | fgag fddg | bgaf gfed | 
 BcAc BGGA2 :|

